assets/luts/synth_warm_filmic.cube
# Synthetic Warm Filmic LUT — Mahabharata Bot
TITLE "Warm Filmic Synth"
LUT_3D_SIZE 17
DOMAIN_MIN 0.0 0.0 0.0
DOMAIN_MAX 1.0 1.0 1.0
0.020000 0.005000 0.000000
0.085625 0.005000 0.000000
0.151250 0.005000 0.000000
0.216875 0.005000 0.000000
0.282500 0.005000 0.000000
0.348125 0.005000 0.000000
0.413750 0.005000 0.000000
0.479375 0.005000 0.000000
0.545000 0.005000 0.000000
0.610625 0.005000 0.000000
0.676250 0.005000 0.000000
0.741875 0.005000 0.000000
0.807500 0.005000 0.000000
0.873125 0.005000 0.000000
0.938750 0.005000 0.000000
1.000000 0.005000 0.000000
1.000000 0.005000 0.000000
0.020000 0.067500 0.000000
0.085625 0.067500 0.000000
0.151250 0.067500 0.000000
0.216875 0.067500 0.000000
0.282500 0.067500 0.000000
0.348125 0.067500 0.000000
0.413750 0.067500 0.000000
0.479375 0.067500 0.000000
0.545000 0.067500 0.000000
0.610625 0.067500 0.000000
0.676250 0.067500 0.000000
0.741875 0.067500 0.000000
0.807500 0.067500 0.000000
0.873125 0.067500 0.000000
0.938750 0.067500 0.000000
1.000000 0.067500 0.000000
1.000000 0.067500 0.000000
0.020000 0.130000 0.000000
0.085625 0.130000 0.000000
0.151250 0.130000 0.000000
0.216875 0.130000 0.000000
0.282500 0.130000 0.000000
0.348125 0.130000 0.000000
0.413750 0.130000 0.000000
0.479375 0.130000 0.000000
0.545000 0.130000 0.000000
0.610625 0.130000 0.000000
0.676250 0.130000 0.000000
0.741875 0.130000 0.000000
0.807500 0.130000 0.000000
0.873125 0.130000 0.000000
0.938750 0.130000 0.000000
1.000000 0.130000 0.000000
1.000000 0.130000 0.000000
0.020000 0.192500 0.000000
0.085625 0.192500 0.000000
0.151250 0.192500 0.000000
0.216875 0.192500 0.000000
0.282500 0.192500 0.000000
0.348125 0.192500 0.000000
0.413750 0.192500 0.000000
0.479375 0.192500 0.000000
0.545000 0.192500 0.000000
0.610625 0.192500 0.000000
0.676250 0.192500 0.000000
0.741875 0.192500 0.000000
0.807500 0.192500 0.000000
0.873125 0.192500 0.000000
0.938750 0.192500 0.000000
1.000000 0.192500 0.000000
1.000000 0.192500 0.000000
0.020000 0.255000 0.000000
0.085625 0.255000 0.000000
0.151250 0.255000 0.000000
0.216875 0.255000 0.000000
0.282500 0.255000 0.000000
0.348125 0.255000 0.000000
0.413750 0.255000 0.000000
0.479375 0.255000 0.000000
0.545000 0.255000 0.000000
0.610625 0.255000 0.000000
0.676250 0.255000 0.000000
0.741875 0.255000 0.000000
0.807500 0.255000 0.000000
0.873125 0.255000 0.000000
0.938750 0.255000 0.000000
1.000000 0.255000 0.000000
1.000000 0.255000 0.000000
0.020000 0.317500 0.000000
0.085625 0.317500 0.000000
0.151250 0.317500 0.000000
0.216875 0.317500 0.000000
0.282500 0.317500 0.000000
0.348125 0.317500 0.000000
0.413750 0.317500 0.000000
0.479375 0.317500 0.000000
0.545000 0.317500 0.000000
0.610625 0.317500 0.000000
0.676250 0.317500 0.000000
0.741875 0.317500 0.000000
0.807500 0.317500 0.000000
0.873125 0.317500 0.000000
0.938750 0.317500 0.000000
1.000000 0.317500 0.000000
1.000000 0.317500 0.000000
0.020000 0.380000 0.000000
0.085625 0.380000 0.000000
0.151250 0.380000 0.000000
0.216875 0.380000 0.000000
0.282500 0.380000 0.000000
0.348125 0.380000 0.000000
0.413750 0.380000 0.000000
0.479375 0.380000 0.000000
0.545000 0.380000 0.000000
0.610625 0.380000 0.000000
0.676250 0.380000 0.000000
0.741875 0.380000 0.000000
0.807500 0.380000 0.000000
0.873125 0.380000 0.000000
0.938750 0.380000 0.000000
1.000000 0.380000 0.000000
1.000000 0.380000 0.000000
0.020000 0.442500 0.000000
0.085625 0.442500 0.000000
0.151250 0.442500 0.000000
0.216875 0.442500 0.000000
0.282500 0.442500 0.000000
0.348125 0.442500 0.000000
0.413750 0.442500 0.000000
0.479375 0.442500 0.000000
0.545000 0.442500 0.000000
0.610625 0.442500 0.000000
0.676250 0.442500 0.000000
0.741875 0.442500 0.000000
0.807500 0.442500 0.000000
0.873125 0.442500 0.000000
0.938750 0.442500 0.000000
1.000000 0.442500 0.000000
1.000000 0.442500 0.000000
0.020000 0.505000 0.000000
0.085625 0.505000 0.000000
0.151250 0.505000 0.000000
0.216875 0.505000 0.000000
0.282500 0.505000 0.000000
0.348125 0.505000 0.000000
0.413750 0.505000 0.000000
0.479375 0.505000 0.000000
0.545000 0.505000 0.000000
0.610625 0.505000 0.000000
0.676250 0.505000 0.000000
0.741875 0.505000 0.000000
0.807500 0.505000 0.000000
0.873125 0.505000 0.000000
0.938750 0.505000 0.000000
1.000000 0.505000 0.000000
1.000000 0.505000 0.000000
0.020000 0.567500 0.000000
0.085625 0.567500 0.000000
0.151250 0.567500 0.000000
0.216875 0.567500 0.000000
0.282500 0.567500 0.000000
0.348125 0.567500 0.000000
0.413750 0.567500 0.000000
0.479375 0.567500 0.000000
0.545000 0.567500 0.000000
0.610625 0.567500 0.000000
0.676250 0.567500 0.000000
0.741875 0.567500 0.000000
0.807500 0.567500 0.000000
0.873125 0.567500 0.000000
0.938750 0.567500 0.000000
1.000000 0.567500 0.000000
1.000000 0.567500 0.000000
0.020000 0.630000 0.000000
0.085625 0.630000 0.000000
0.151250 0.630000 0.000000
0.216875 0.630000 0.000000
0.282500 0.630000 0.000000
0.348125 0.630000 0.000000
0.413750 0.630000 0.000000
0.479375 0.630000 0.000000
0.545000 0.630000 0.000000
0.610625 0.630000 0.000000
0.676250 0.630000 0.000000
0.741875 0.630000 0.000000
0.807500 0.630000 0.000000
0.873125 0.630000 0.000000
0.938750 0.630000 0.000000
1.000000 0.630000 0.000000
1.000000 0.630000 0.000000
0.020000 0.692500 0.000000
0.085625 0.692500 0.000000
0.151250 0.692500 0.000000
0.216875 0.692500 0.000000
0.282500 0.692500 0.000000
0.348125 0.692500 0.000000
0.413750 0.692500 0.000000
0.479375 0.692500 0.000000
0.545000 0.692500 0.000000
0.610625 0.692500 0.000000
0.676250 0.692500 0.000000
0.741875 0.692500 0.000000
0.807500 0.692500 0.000000
0.873125 0.692500 0.000000
0.938750 0.692500 0.000000
1.000000 0.692500 0.000000
1.000000 0.692500 0.000000
0.020000 0.755000 0.000000
0.085625 0.755000 0.000000
0.151250 0.755000 0.000000
0.216875 0.755000 0.000000
0.282500 0.755000 0.000000
0.348125 0.755000 0.000000
0.413750 0.755000 0.000000
0.479375 0.755000 0.000000
0.545000 0.755000 0.000000
0.610625 0.755000 0.000000
0.676250 0.755000 0.000000
0.741875 0.755000 0.000000
0.807500 0.755000 0.000000
0.873125 0.755000 0.000000
0.938750 0.755000 0.000000
1.000000 0.755000 0.000000
1.000000 0.755000 0.000000
0.020000 0.817500 0.000000
0.085625 0.817500 0.000000
0.151250 0.817500 0.000000
0.216875 0.817500 0.000000
0.282500 0.817500 0.000000
0.348125 0.817500 0.000000
0.413750 0.817500 0.000000
0.479375 0.817500 0.000000
0.545000 0.817500 0.000000
0.610625 0.817500 0.000000
0.676250 0.817500 0.000000
0.741875 0.817500 0.000000
0.807500 0.817500 0.000000
0.873125 0.817500 0.000000
0.938750 0.817500 0.000000
1.000000 0.817500 0.000000
1.000000 0.817500 0.000000
0.020000 0.880000 0.000000
0.085625 0.880000 0.000000
0.151250 0.880000 0.000000
0.216875 0.880000 0.000000
0.282500 0.880000 0.000000
0.348125 0.880000 0.000000
0.413750 0.880000 0.000000
0.479375 0.880000 0.000000
0.545000 0.880000 0.000000
0.610625 0.880000 0.000000
0.676250 0.880000 0.000000
0.741875 0.880000 0.000000
0.807500 0.880000 0.000000
0.873125 0.880000 0.000000
0.938750 0.880000 0.000000
1.000000 0.880000 0.000000
1.000000 0.880000 0.000000
0.020000 0.942500 0.000000
0.085625 0.942500 0.000000
0.151250 0.942500 0.000000
0.216875 0.942500 0.000000
0.282500 0.942500 0.000000
0.348125 0.942500 0.000000
0.413750 0.942500 0.000000
0.479375 0.942500 0.000000
0.545000 0.942500 0.000000
0.610625 0.942500 0.000000
0.676250 0.942500 0.000000
0.741875 0.942500 0.000000
0.807500 0.942500 0.000000
0.873125 0.942500 0.000000
0.938750 0.942500 0.000000
1.000000 0.942500 0.000000
1.000000 0.942500 0.000000
0.020000 1.000000 0.000000
0.085625 1.000000 0.000000
0.151250 1.000000 0.000000
0.216875 1.000000 0.000000
0.282500 1.000000 0.000000
0.348125 1.000000 0.000000
0.413750 1.000000 0.000000
0.479375 1.000000 0.000000
0.545000 1.000000 0.000000
0.610625 1.000000 0.000000
0.676250 1.000000 0.000000
0.741875 1.000000 0.000000
0.807500 1.000000 0.000000
0.873125 1.000000 0.000000
0.938750 1.000000 0.000000
1.000000 1.000000 0.000000
1.000000 1.000000 0.000000
0.020000 0.005000 0.057500
0.085625 0.005000 0.057500
0.151250 0.005000 0.057500
0.216875 0.005000 0.057500
0.282500 0.005000 0.057500
0.348125 0.005000 0.057500
0.413750 0.005000 0.057500
0.479375 0.005000 0.057500
0.545000 0.005000 0.057500
0.610625 0.005000 0.057500
0.676250 0.005000 0.057500
0.741875 0.005000 0.057500
0.807500 0.005000 0.057500
0.873125 0.005000 0.057500
0.938750 0.005000 0.057500
1.000000 0.005000 0.057500
1.000000 0.005000 0.057500
0.020000 0.067500 0.057500
0.085625 0.067500 0.057500
0.151250 0.067500 0.057500
0.216875 0.067500 0.057500
0.282500 0.067500 0.057500
0.348125 0.067500 0.057500
0.413750 0.067500 0.057500
0.479375 0.067500 0.057500
0.545000 0.067500 0.057500
0.610625 0.067500 0.057500
0.676250 0.067500 0.057500
0.741875 0.067500 0.057500
0.807500 0.067500 0.057500
0.873125 0.067500 0.057500
0.938750 0.067500 0.057500
1.000000 0.067500 0.057500
1.000000 0.067500 0.057500
0.020000 0.130000 0.057500
0.085625 0.130000 0.057500
0.151250 0.130000 0.057500
0.216875 0.130000 0.057500
0.282500 0.130000 0.057500
0.348125 0.130000 0.057500
0.413750 0.130000 0.057500
0.479375 0.130000 0.057500
0.545000 0.130000 0.057500
0.610625 0.130000 0.057500
0.676250 0.130000 0.057500
0.741875 0.130000 0.057500
0.807500 0.130000 0.057500
0.873125 0.130000 0.057500
0.938750 0.130000 0.057500
1.000000 0.130000 0.057500
1.000000 0.130000 0.057500
0.020000 0.192500 0.057500
0.085625 0.192500 0.057500
0.151250 0.192500 0.057500
0.216875 0.192500 0.057500
0.282500 0.192500 0.057500
0.348125 0.192500 0.057500
0.413750 0.192500 0.057500
0.479375 0.192500 0.057500
0.545000 0.192500 0.057500
0.610625 0.192500 0.057500
0.676250 0.192500 0.057500
0.741875 0.192500 0.057500
0.807500 0.192500 0.057500
0.873125 0.192500 0.057500
0.938750 0.192500 0.057500
1.000000 0.192500 0.057500
1.000000 0.192500 0.057500
0.020000 0.255000 0.057500
0.085625 0.255000 0.057500
0.151250 0.255000 0.057500
0.216875 0.255000 0.057500
0.282500 0.255000 0.057500
0.348125 0.255000 0.057500
0.413750 0.255000 0.057500
0.479375 0.255000 0.057500
0.545000 0.255000 0.057500
0.610625 0.255000 0.057500
0.676250 0.255000 0.057500
0.741875 0.255000 0.057500
0.807500 0.255000 0.057500
0.873125 0.255000 0.057500
0.938750 0.255000 0.057500
1.000000 0.255000 0.057500
1.000000 0.255000 0.057500
0.020000 0.317500 0.057500
0.085625 0.317500 0.057500
0.151250 0.317500 0.057500
0.216875 0.317500 0.057500
0.282500 0.317500 0.057500
0.348125 0.317500 0.057500
0.413750 0.317500 0.057500
0.479375 0.317500 0.057500
0.545000 0.317500 0.057500
0.610625 0.317500 0.057500
0.676250 0.317500 0.057500
0.741875 0.317500 0.057500
0.807500 0.317500 0.057500
0.873125 0.317500 0.057500
0.938750 0.317500 0.057500
1.000000 0.317500 0.057500
1.000000 0.317500 0.057500
0.020000 0.380000 0.057500
0.085625 0.380000 0.057500
0.151250 0.380000 0.057500
0.216875 0.380000 0.057500
0.282500 0.380000 0.057500
0.348125 0.380000 0.057500
0.413750 0.380000 0.057500
0.479375 0.380000 0.057500
0.545000 0.380000 0.057500
0.610625 0.380000 0.057500
0.676250 0.380000 0.057500
0.741875 0.380000 0.057500
0.807500 0.380000 0.057500
0.873125 0.380000 0.057500
0.938750 0.380000 0.057500
1.000000 0.380000 0.057500
1.000000 0.380000 0.057500
0.020000 0.442500 0.057500
0.085625 0.442500 0.057500
0.151250 0.442500 0.057500
0.216875 0.442500 0.057500
0.282500 0.442500 0.057500
0.348125 0.442500 0.057500
0.413750 0.442500 0.057500
0.479375 0.442500 0.057500
0.545000 0.442500 0.057500
0.610625 0.442500 0.057500
0.676250 0.442500 0.057500
0.741875 0.442500 0.057500
0.807500 0.442500 0.057500
0.873125 0.442500 0.057500
0.938750 0.442500 0.057500
1.000000 0.442500 0.057500
1.000000 0.442500 0.057500
0.020000 0.505000 0.057500
0.085625 0.505000 0.057500
0.151250 0.505000 0.057500
0.216875 0.505000 0.057500
0.282500 0.505000 0.057500
0.348125 0.505000 0.057500
0.413750 0.505000 0.057500
0.479375 0.505000 0.057500
0.545000 0.505000 0.057500
0.610625 0.505000 0.057500
0.676250 0.505000 0.057500
0.741875 0.505000 0.057500
0.807500 0.505000 0.057500
0.873125 0.505000 0.057500
0.938750 0.505000 0.057500
1.000000 0.505000 0.057500
1.000000 0.505000 0.057500
0.020000 0.567500 0.057500
0.085625 0.567500 0.057500
0.151250 0.567500 0.057500
0.216875 0.567500 0.057500
0.282500 0.567500 0.057500
0.348125 0.567500 0.057500
0.413750 0.567500 0.057500
0.479375 0.567500 0.057500
0.545000 0.567500 0.057500
0.610625 0.567500 0.057500
0.676250 0.567500 0.057500
0.741875 0.567500 0.057500
0.807500 0.567500 0.057500
0.873125 0.567500 0.057500
0.938750 0.567500 0.057500
1.000000 0.567500 0.057500
1.000000 0.567500 0.057500
0.020000 0.630000 0.057500
0.085625 0.630000 0.057500
0.151250 0.630000 0.057500
0.216875 0.630000 0.057500
0.282500 0.630000 0.057500
0.348125 0.630000 0.057500
0.413750 0.630000 0.057500
0.479375 0.630000 0.057500
0.545000 0.630000 0.057500
0.610625 0.630000 0.057500
0.676250 0.630000 0.057500
0.741875 0.630000 0.057500
0.807500 0.630000 0.057500
0.873125 0.630000 0.057500
0.938750 0.630000 0.057500
1.000000 0.630000 0.057500
1.000000 0.630000 0.057500
0.020000 0.692500 0.057500
0.085625 0.692500 0.057500
0.151250 0.692500 0.057500
0.216875 0.692500 0.057500
0.282500 0.692500 0.057500
0.348125 0.692500 0.057500
0.413750 0.692500 0.057500
0.479375 0.692500 0.057500
0.545000 0.692500 0.057500
0.610625 0.692500 0.057500
0.676250 0.692500 0.057500
0.741875 0.692500 0.057500
0.807500 0.692500 0.057500
0.873125 0.692500 0.057500
0.938750 0.692500 0.057500
1.000000 0.692500 0.057500
1.000000 0.692500 0.057500
0.020000 0.755000 0.057500
0.085625 0.755000 0.057500
0.151250 0.755000 0.057500
0.216875 0.755000 0.057500
0.282500 0.755000 0.057500
0.348125 0.755000 0.057500
0.413750 0.755000 0.057500
0.479375 0.755000 0.057500
0.545000 0.755000 0.057500
0.610625 0.755000 0.057500
0.676250 0.755000 0.057500
0.741875 0.755000 0.057500
0.807500 0.755000 0.057500
0.873125 0.755000 0.057500
0.938750 0.755000 0.057500
1.000000 0.755000 0.057500
1.000000 0.755000 0.057500
0.020000 0.817500 0.057500
0.085625 0.817500 0.057500
0.151250 0.817500 0.057500
0.216875 0.817500 0.057500
0.282500 0.817500 0.057500
0.348125 0.817500 0.057500
0.413750 0.817500 0.057500
0.479375 0.817500 0.057500
0.545000 0.817500 0.057500
0.610625 0.817500 0.057500
0.676250 0.817500 0.057500
0.741875 0.817500 0.057500
0.807500 0.817500 0.057500
0.873125 0.817500 0.057500
0.938750 0.817500 0.057500
1.000000 0.817500 0.057500
1.000000 0.817500 0.057500
0.020000 0.880000 0.057500
0.085625 0.880000 0.057500
0.151250 0.880000 0.057500
0.216875 0.880000 0.057500
0.282500 0.880000 0.057500
0.348125 0.880000 0.057500
0.413750 0.880000 0.057500
0.479375 0.880000 0.057500
0.545000 0.880000 0.057500
0.610625 0.880000 0.057500
0.676250 0.880000 0.057500
0.741875 0.880000 0.057500
0.807500 0.880000 0.057500
0.873125 0.880000 0.057500
0.938750 0.880000 0.057500
1.000000 0.880000 0.057500
1.000000 0.880000 0.057500
0.020000 0.942500 0.057500
0.085625 0.942500 0.057500
0.151250 0.942500 0.057500
0.216875 0.942500 0.057500
0.282500 0.942500 0.057500
0.348125 0.942500 0.057500
0.413750 0.942500 0.057500
0.479375 0.942500 0.057500
0.545000 0.942500 0.057500
0.610625 0.942500 0.057500
0.676250 0.942500 0.057500
0.741875 0.942500 0.057500
0.807500 0.942500 0.057500
0.873125 0.942500 0.057500
0.938750 0.942500 0.057500
1.000000 0.942500 0.057500
1.000000 0.942500 0.057500
0.020000 1.000000 0.057500
0.085625 1.000000 0.057500
0.151250 1.000000 0.057500
0.216875 1.000000 0.057500
0.282500 1.000000 0.057500
0.348125 1.000000 0.057500
0.413750 1.000000 0.057500
0.479375 1.000000 0.057500
0.545000 1.000000 0.057500
0.610625 1.000000 0.057500
0.676250 1.000000 0.057500
0.741875 1.000000 0.057500
0.807500 1.000000 0.057500
0.873125 1.000000 0.057500
0.938750 1.000000 0.057500
1.000000 1.000000 0.057500
1.000000 1.000000 0.057500
0.020000 0.005000 0.115000
0.085625 0.005000 0.115000
0.151250 0.005000 0.115000
0.216875 0.005000 0.115000
0.282500 0.005000 0.115000
0.348125 0.005000 0.115000
0.413750 0.005000 0.115000
0.479375 0.005000 0.115000
0.545000 0.005000 0.115000
0.610625 0.005000 0.115000
0.676250 0.005000 0.115000
0.741875 0.005000 0.115000
0.807500 0.005000 0.115000
0.873125 0.005000 0.115000
0.938750 0.005000 0.115000
1.000000 0.005000 0.115000
1.000000 0.005000 0.115000
0.020000 0.067500 0.115000
0.085625 0.067500 0.115000
0.151250 0.067500 0.115000
0.216875 0.067500 0.115000
0.282500 0.067500 0.115000
0.348125 0.067500 0.115000
0.413750 0.067500 0.115000
0.479375 0.067500 0.115000
0.545000 0.067500 0.115000
0.610625 0.067500 0.115000
0.676250 0.067500 0.115000
0.741875 0.067500 0.115000
0.807500 0.067500 0.115000
0.873125 0.067500 0.115000
0.938750 0.067500 0.115000
1.000000 0.067500 0.115000
1.000000 0.067500 0.115000
0.020000 0.130000 0.115000
0.085625 0.130000 0.115000
0.151250 0.130000 0.115000
0.216875 0.130000 0.115000
0.282500 0.130000 0.115000
0.348125 0.130000 0.115000
0.413750 0.130000 0.115000
0.479375 0.130000 0.115000
0.545000 0.130000 0.115000
0.610625 0.130000 0.115000
0.676250 0.130000 0.115000
0.741875 0.130000 0.115000
0.807500 0.130000 0.115000
0.873125 0.130000 0.115000
0.938750 0.130000 0.115000
1.000000 0.130000 0.115000
1.000000 0.130000 0.115000
0.020000 0.192500 0.115000
0.085625 0.192500 0.115000
0.151250 0.192500 0.115000
0.216875 0.192500 0.115000
0.282500 0.192500 0.115000
0.348125 0.192500 0.115000
0.413750 0.192500 0.115000
0.479375 0.192500 0.115000
0.545000 0.192500 0.115000
0.610625 0.192500 0.115000
0.676250 0.192500 0.115000
0.741875 0.192500 0.115000
0.807500 0.192500 0.115000
0.873125 0.192500 0.115000
0.938750 0.192500 0.115000
1.000000 0.192500 0.115000
1.000000 0.192500 0.115000
0.020000 0.255000 0.115000
0.085625 0.255000 0.115000
0.151250 0.255000 0.115000
0.216875 0.255000 0.115000
0.282500 0.255000 0.115000
0.348125 0.255000 0.115000
0.413750 0.255000 0.115000
0.479375 0.255000 0.115000
0.545000 0.255000 0.115000
0.610625 0.255000 0.115000
0.676250 0.255000 0.115000
0.741875 0.255000 0.115000
0.807500 0.255000 0.115000
0.873125 0.255000 0.115000
0.938750 0.255000 0.115000
1.000000 0.255000 0.115000
1.000000 0.255000 0.115000
0.020000 0.317500 0.115000
0.085625 0.317500 0.115000
0.151250 0.317500 0.115000
0.216875 0.317500 0.115000
0.282500 0.317500 0.115000
0.348125 0.317500 0.115000
0.413750 0.317500 0.115000
0.479375 0.317500 0.115000
0.545000 0.317500 0.115000
0.610625 0.317500 0.115000
0.676250 0.317500 0.115000
0.741875 0.317500 0.115000
0.807500 0.317500 0.115000
0.873125 0.317500 0.115000
0.938750 0.317500 0.115000
1.000000 0.317500 0.115000
1.000000 0.317500 0.115000
0.020000 0.380000 0.115000
0.085625 0.380000 0.115000
0.151250 0.380000 0.115000
0.216875 0.380000 0.115000
0.282500 0.380000 0.115000
0.348125 0.380000 0.115000
0.413750 0.380000 0.115000
0.479375 0.380000 0.115000
0.545000 0.380000 0.115000
0.610625 0.380000 0.115000
0.676250 0.380000 0.115000
0.741875 0.380000 0.115000
0.807500 0.380000 0.115000
0.873125 0.380000 0.115000
0.938750 0.380000 0.115000
1.000000 0.380000 0.115000
1.000000 0.380000 0.115000
0.020000 0.442500 0.115000
0.085625 0.442500 0.115000
0.151250 0.442500 0.115000
0.216875 0.442500 0.115000
0.282500 0.442500 0.115000
0.348125 0.442500 0.115000
0.413750 0.442500 0.115000
0.479375 0.442500 0.115000
0.545000 0.442500 0.115000
0.610625 0.442500 0.115000
0.676250 0.442500 0.115000
0.741875 0.442500 0.115000
0.807500 0.442500 0.115000
0.873125 0.442500 0.115000
0.938750 0.442500 0.115000
1.000000 0.442500 0.115000
1.000000 0.442500 0.115000
0.020000 0.505000 0.115000
0.085625 0.505000 0.115000
0.151250 0.505000 0.115000
0.216875 0.505000 0.115000
0.282500 0.505000 0.115000
0.348125 0.505000 0.115000
0.413750 0.505000 0.115000
0.479375 0.505000 0.115000
0.545000 0.505000 0.115000
0.610625 0.505000 0.115000
0.676250 0.505000 0.115000
0.741875 0.505000 0.115000
0.807500 0.505000 0.115000
0.873125 0.505000 0.115000
0.938750 0.505000 0.115000
1.000000 0.505000 0.115000
1.000000 0.505000 0.115000
0.020000 0.567500 0.115000
0.085625 0.567500 0.115000
0.151250 0.567500 0.115000
0.216875 0.567500 0.115000
0.282500 0.567500 0.115000
0.348125 0.567500 0.115000
0.413750 0.567500 0.115000
0.479375 0.567500 0.115000
0.545000 0.567500 0.115000
0.610625 0.567500 0.115000
0.676250 0.567500 0.115000
0.741875 0.567500 0.115000
0.807500 0.567500 0.115000
0.873125 0.567500 0.115000
0.938750 0.567500 0.115000
1.000000 0.567500 0.115000
1.000000 0.567500 0.115000
0.020000 0.630000 0.115000
0.085625 0.630000 0.115000
0.151250 0.630000 0.115000
0.216875 0.630000 0.115000
0.282500 0.630000 0.115000
0.348125 0.630000 0.115000
0.413750 0.630000 0.115000
0.479375 0.630000 0.115000
0.545000 0.630000 0.115000
0.610625 0.630000 0.115000
0.676250 0.630000 0.115000
0.741875 0.630000 0.115000
0.807500 0.630000 0.115000
0.873125 0.630000 0.115000
0.938750 0.630000 0.115000
1.000000 0.630000 0.115000
1.000000 0.630000 0.115000
0.020000 0.692500 0.115000
0.085625 0.692500 0.115000
0.151250 0.692500 0.115000
0.216875 0.692500 0.115000
0.282500 0.692500 0.115000
0.348125 0.692500 0.115000
0.413750 0.692500 0.115000
0.479375 0.692500 0.115000
0.545000 0.692500 0.115000
0.610625 0.692500 0.115000
0.676250 0.692500 0.115000
0.741875 0.692500 0.115000
0.807500 0.692500 0.115000
0.873125 0.692500 0.115000
0.938750 0.692500 0.115000
1.000000 0.692500 0.115000
1.000000 0.692500 0.115000
0.020000 0.755000 0.115000
0.085625 0.755000 0.115000
0.151250 0.755000 0.115000
0.216875 0.755000 0.115000
0.282500 0.755000 0.115000
0.348125 0.755000 0.115000
0.413750 0.755000 0.115000
0.479375 0.755000 0.115000
0.545000 0.755000 0.115000
0.610625 0.755000 0.115000
0.676250 0.755000 0.115000
0.741875 0.755000 0.115000
0.807500 0.755000 0.115000
0.873125 0.755000 0.115000
0.938750 0.755000 0.115000
1.000000 0.755000 0.115000
1.000000 0.755000 0.115000
0.020000 0.817500 0.115000
0.085625 0.817500 0.115000
0.151250 0.817500 0.115000
0.216875 0.817500 0.115000
0.282500 0.817500 0.115000
0.348125 0.817500 0.115000
0.413750 0.817500 0.115000
0.479375 0.817500 0.115000
0.545000 0.817500 0.115000
0.610625 0.817500 0.115000
0.676250 0.817500 0.115000
0.741875 0.817500 0.115000
0.807500 0.817500 0.115000
0.873125 0.817500 0.115000
0.938750 0.817500 0.115000
1.000000 0.817500 0.115000
1.000000 0.817500 0.115000
0.020000 0.880000 0.115000
0.085625 0.880000 0.115000
0.151250 0.880000 0.115000
0.216875 0.880000 0.115000
0.282500 0.880000 0.115000
0.348125 0.880000 0.115000
0.413750 0.880000 0.115000
0.479375 0.880000 0.115000
0.545000 0.880000 0.115000
0.610625 0.880000 0.115000
0.676250 0.880000 0.115000
0.741875 0.880000 0.115000
0.807500 0.880000 0.115000
0.873125 0.880000 0.115000
0.938750 0.880000 0.115000
1.000000 0.880000 0.115000
1.000000 0.880000 0.115000
0.020000 0.942500 0.115000
0.085625 0.942500 0.115000
0.151250 0.942500 0.115000
0.216875 0.942500 0.115000
0.282500 0.942500 0.115000
0.348125 0.942500 0.115000
0.413750 0.942500 0.115000
0.479375 0.942500 0.115000
0.545000 0.942500 0.115000
0.610625 0.942500 0.115000
0.676250 0.942500 0.115000
0.741875 0.942500 0.115000
0.807500 0.942500 0.115000
0.873125 0.942500 0.115000
0.938750 0.942500 0.115000
1.000000 0.942500 0.115000
1.000000 0.942500 0.115000
0.020000 1.000000 0.115000
0.085625 1.000000 0.115000
0.151250 1.000000 0.115000
0.216875 1.000000 0.115000
0.282500 1.000000 0.115000
0.348125 1.000000 0.115000
0.413750 1.000000 0.115000
0.479375 1.000000 0.115000
0.545000 1.000000 0.115000
0.610625 1.000000 0.115000
0.676250 1.000000 0.115000
0.741875 1.000000 0.115000
0.807500 1.000000 0.115000
0.873125 1.000000 0.115000
0.938750 1.000000 0.115000
1.000000 1.000000 0.115000
1.000000 1.000000 0.115000
0.020000 0.005000 0.172500
0.085625 0.005000 0.172500
0.151250 0.005000 0.172500
0.216875 0.005000 0.172500
0.282500 0.005000 0.172500
0.348125 0.005000 0.172500
0.413750 0.005000 0.172500
0.479375 0.005000 0.172500
0.545000 0.005000 0.172500
0.610625 0.005000 0.172500
0.676250 0.005000 0.172500
0.741875 0.005000 0.172500
0.807500 0.005000 0.172500
0.873125 0.005000 0.172500
0.938750 0.005000 0.172500
1.000000 0.005000 0.172500
