assets/luts/synth_teal_orange.cube
# Synthetic Teal & Orange LUT — Mahabharata Bot
TITLE "Teal Orange Synth"
LUT_3D_SIZE 5
DOMAIN_MIN 0.0 0.0 0.0
DOMAIN_MAX 1.0 1.0 1.0
0.000000 0.000000 0.040000
0.218520 0.000000 0.040000
0.489842 0.000000 0.040000
0.775168 0.000000 0.040000
1.000000 0.000000 0.040000
0.000000 0.255000 0.040000
0.218520 0.255000 0.040000
0.489842 0.255000 0.040000
0.775168 0.255000 0.040000
1.000000 0.255000 0.040000
0.000000 0.510000 0.040000
0.218520 0.510000 0.040000
0.489842 0.510000 0.040000
0.775168 0.510000 0.040000
1.000000 0.510000 0.040000
0.000000 0.765000 0.040000
0.218520 0.765000 0.040000
0.489842 0.765000 0.040000
0.775168 0.765000 0.040000
1.000000 0.765000 0.040000
0.000000 1.000000 0.040000
0.218520 1.000000 0.040000
0.489842 1.000000 0.040000
0.775168 1.000000 0.040000
1.000000 1.000000 0.040000
0.000000 0.000000 0.278438
0.218520 0.000000 0.278438
0.489842 0.000000 0.278438
0.775168 0.000000 0.278438
1.000000 0.000000 0.278438
0.000000 0.255000 0.278438
0.218520 0.255000 0.278438
0.489842 0.255000 0.278438
0.775168 0.255000 0.278438
1.000000 0.255000 0.278438
0.000000 0.510000 0.278438
0.218520 0.510000 0.278438
0.489842 0.510000 0.278438
0.775168 0.510000 0.278438
1.000000 0.510000 0.278438
0.000000 0.765000 0.278438
0.218520 0.765000 0.278438
0.489842 0.765000 0.278438
0.775168 0.765000 0.278438
1.000000 0.765000 0.278438
0.000000 1.000000 0.278438
0.218520 1.000000 0.278438
0.489842 1.000000 0.278438
0.775168 1.000000 0.278438
1.000000 1.000000 0.278438
0.000000 0.000000 0.507500
0.218520 0.000000 0.507500
0.489842 0.000000 0.507500
0.775168 0.000000 0.507500
1.000000 0.000000 0.507500
0.000000 0.255000 0.507500
0.218520 0.255000 0.507500
0.489842 0.255000 0.507500
0.775168 0.255000 0.507500
1.000000 0.255000 0.507500
0.000000 0.510000 0.507500
0.218520 0.510000 0.507500
0.489842 0.510000 0.507500
0.775168 0.510000 0.507500
1.000000 0.510000 0.507500
0.000000 0.765000 0.507500
0.218520 0.765000 0.507500
0.489842 0.765000 0.507500
0.775168 0.765000 0.507500
1.000000 0.765000 0.507500
0.000000 1.000000 0.507500
0.218520 1.000000 0.507500
0.489842 1.000000 0.507500
0.775168 1.000000 0.507500
1.000000 1.000000 0.507500
0.000000 0.000000 0.717812
0.218520 0.000000 0.717812
0.489842 0.000000 0.717812
0.775168 0.000000 0.717812
1.000000 0.000000 0.717812
0.000000 0.255000 0.717812
0.218520 0.255000 0.717812
0.489842 0.255000 0.717812
0.775168 0.255000 0.717812
1.000000 0.255000 0.717812
0.000000 0.510000 0.717812
0.218520 0.510000 0.717812
0.489842 0.510000 0.717812
0.775168 0.510000 0.717812
1.000000 0.510000 0.717812
0.000000 0.765000 0.717812
0.218520 0.765000 0.717812
0.489842 0.765000 0.717812
0.775168 0.765000 0.717812
1.000000 0.765000 0.717812
0.000000 1.000000 0.717812
0.218520 1.000000 0.717812
0.489842 1.000000 0.717812
0.775168 1.000000 0.717812
1.000000 1.000000 0.717812
0.000000 0.000000 0.900000
0.218520 0.000000 0.900000
0.489842 0.000000 0.900000
0.775168 0.000000 0.900000
1.000000 0.000000 0.900000
0.000000 0.255000 0.900000
0.218520 0.255000 0.900000
0.489842 0.255000 0.900000
0.775168 0.255000 0.900000
1.000000 0.255000 0.900000
0.000000 0.510000 0.900000
0.218520 0.510000 0.900000
0.489842 0.510000 0.900000
0.775168 0.510000 0.900000
1.000000 0.510000 0.900000
0.000000 0.765000 0.900000
0.218520 0.765000 0.900000
0.489842 0.765000 0.900000
0.775168 0.765000 0.900000
1.000000 0.765000 0.900000
0.000000 1.000000 0.900000
0.218520 1.000000 0.900000
0.489842 1.000000 0.900000
0.775168 1.000000 0.900000
1.000000 1.000000 0.900000
