assets/luts/synth_warm_filmic.cube
# Synthetic Warm Filmic LUT — Mahabharata Bot
TITLE "Warm Filmic Synth"
LUT_3D_SIZE 5
DOMAIN_MIN 0.0 0.0 0.0
DOMAIN_MAX 1.0 1.0 1.0
0.020000 0.005000 0.000000
0.282500 0.005000 0.000000
0.545000 0.005000 0.000000
0.807500 0.005000 0.000000
1.000000 0.005000 0.000000
0.020000 0.255000 0.000000
0.282500 0.255000 0.000000
0.545000 0.255000 0.000000
0.807500 0.255000 0.000000
1.000000 0.255000 0.000000
0.020000 0.505000 0.000000
0.282500 0.505000 0.000000
0.545000 0.505000 0.000000
0.807500 0.505000 0.000000
1.000000 0.505000 0.000000
0.020000 0.755000 0.000000
0.282500 0.755000 0.000000
0.545000 0.755000 0.000000
0.807500 0.755000 0.000000
1.000000 0.755000 0.000000
0.020000 1.000000 0.000000
0.282500 1.000000 0.000000
0.545000 1.000000 0.000000
0.807500 1.000000 0.000000
1.000000 1.000000 0.000000
0.020000 0.005000 0.230000
0.282500 0.005000 0.230000
0.545000 0.005000 0.230000
0.807500 0.005000 0.230000
1.000000 0.005000 0.230000
0.020000 0.255000 0.230000
0.282500 0.255000 0.230000
0.545000 0.255000 0.230000
0.807500 0.255000 0.230000
1.000000 0.255000 0.230000
0.020000 0.505000 0.230000
0.282500 0.505000 0.230000
0.545000 0.505000 0.230000
0.807500 0.505000 0.230000
1.000000 0.505000 0.230000
0.020000 0.755000 0.230000
0.282500 0.755000 0.230000
0.545000 0.755000 0.230000
0.807500 0.755000 0.230000
1.000000 0.755000 0.230000
0.020000 1.000000 0.230000
0.282500 1.000000 0.230000
0.545000 1.000000 0.230000
0.807500 1.000000 0.230000
1.000000 1.000000 0.230000
0.020000 0.005000 0.460000
0.282500 0.005000 0.460000
0.545000 0.005000 0.460000
0.807500 0.005000 0.460000
1.000000 0.005000 0.460000
0.020000 0.255000 0.460000
0.282500 0.255000 0.460000
0.545000 0.255000 0.460000
0.807500 0.255000 0.460000
1.000000 0.255000 0.460000
0.020000 0.505000 0.460000
0.282500 0.505000 0.460000
0.545000 0.505000 0.460000
0.807500 0.505000 0.460000
1.000000 0.505000 0.460000
0.020000 0.755000 0.460000
0.282500 0.755000 0.460000
0.545000 0.755000 0.460000
0.807500 0.755000 0.460000
1.000000 0.755000 0.460000
0.020000 1.000000 0.460000
0.282500 1.000000 0.460000
0.545000 1.000000 0.460000
0.807500 1.000000 0.460000
1.000000 1.000000 0.460000
0.020000 0.005000 0.690000
0.282500 0.005000 0.690000
0.545000 0.005000 0.690000
0.807500 0.005000 0.690000
1.000000 0.005000 0.690000
0.020000 0.255000 0.690000
0.282500 0.255000 0.690000
0.545000 0.255000 0.690000
0.807500 0.255000 0.690000
1.000000 0.255000 0.690000
0.020000 0.505000 0.690000
0.282500 0.505000 0.690000
0.545000 0.505000 0.690000
0.807500 0.505000 0.690000
1.000000 0.505000 0.690000
0.020000 0.755000 0.690000
0.282500 0.755000 0.690000
0.545000 0.755000 0.690000
0.807500 0.755000 0.690000
1.000000 0.755000 0.690000
0.020000 1.000000 0.690000
0.282500 1.000000 0.690000
0.545000 1.000000 0.690000
0.807500 1.000000 0.690000
1.000000 1.000000 0.690000
0.020000 0.005000 0.920000
0.282500 0.005000 0.920000
0.545000 0.005000 0.920000
0.807500 0.005000 0.920000
1.000000 0.005000 0.920000
0.020000 0.255000 0.920000
0.282500 0.255000 0.920000
0.545000 0.255000 0.920000
0.807500 0.255000 0.920000
1.000000 0.255000 0.920000
0.020000 0.505000 0.920000
0.282500 0.505000 0.920000
0.545000 0.505000 0.920000
0.807500 0.505000 0.920000
1.000000 0.505000 0.920000
0.020000 0.755000 0.920000
0.282500 0.755000 0.920000
0.545000 0.755000 0.920000
0.807500 0.755000 0.920000
1.000000 0.755000 0.920000
0.020000 1.000000 0.920000
0.282500 1.000000 0.920000
0.545000 1.000000 0.920000
0.807500 1.000000 0.920000
1.000000 1.000000 0.920000
