assets/luts/synth_teal_orange.cube
# Synthetic Teal & Orange LUT — Mahabharata Bot
TITLE "Teal Orange Synth"
LUT_3D_SIZE 17
DOMAIN_MIN 0.0 0.0 0.0
DOMAIN_MAX 1.0 1.0 1.0
0.000000 0.000000 0.040000
0.032234 0.000000 0.040000
0.091608 0.000000 0.040000
0.154029 0.000000 0.040000
0.218520 0.000000 0.040000
0.284595 0.000000 0.040000
0.351963 0.000000 0.040000
0.420427 0.000000 0.040000
0.489842 0.000000 0.040000
0.560102 0.000000 0.040000
0.631120 0.000000 0.040000
0.702827 0.000000 0.040000
0.775168 0.000000 0.040000
0.848093 0.000000 0.040000
0.921563 0.000000 0.040000
0.995542 0.000000 0.040000
1.000000 0.000000 0.040000
0.000000 0.063750 0.040000
0.032234 0.063750 0.040000
0.091608 0.063750 0.040000
0.154029 0.063750 0.040000
0.218520 0.063750 0.040000
0.284595 0.063750 0.040000
0.351963 0.063750 0.040000
0.420427 0.063750 0.040000
0.489842 0.063750 0.040000
0.560102 0.063750 0.040000
0.631120 0.063750 0.040000
0.702827 0.063750 0.040000
0.775168 0.063750 0.040000
0.848093 0.063750 0.040000
0.921563 0.063750 0.040000
0.995542 0.063750 0.040000
1.000000 0.063750 0.040000
0.000000 0.127500 0.040000
0.032234 0.127500 0.040000
0.091608 0.127500 0.040000
0.154029 0.127500 0.040000
0.218520 0.127500 0.040000
0.284595 0.127500 0.040000
0.351963 0.127500 0.040000
0.420427 0.127500 0.040000
0.489842 0.127500 0.040000
0.560102 0.127500 0.040000
0.631120 0.127500 0.040000
0.702827 0.127500 0.040000
0.775168 0.127500 0.040000
0.848093 0.127500 0.040000
0.921563 0.127500 0.040000
0.995542 0.127500 0.040000
1.000000 0.127500 0.040000
0.000000 0.191250 0.040000
0.032234 0.191250 0.040000
0.091608 0.191250 0.040000
0.154029 0.191250 0.040000
0.218520 0.191250 0.040000
0.284595 0.191250 0.040000
0.351963 0.191250 0.040000
0.420427 0.191250 0.040000
0.489842 0.191250 0.040000
0.560102 0.191250 0.040000
0.631120 0.191250 0.040000
0.702827 0.191250 0.040000
0.775168 0.191250 0.040000
0.848093 0.191250 0.040000
0.921563 0.191250 0.040000
0.995542 0.191250 0.040000
1.000000 0.191250 0.040000
0.000000 0.255000 0.040000
0.032234 0.255000 0.040000
0.091608 0.255000 0.040000
0.154029 0.255000 0.040000
0.218520 0.255000 0.040000
0.284595 0.255000 0.040000
0.351963 0.255000 0.040000
0.420427 0.255000 0.040000
0.489842 0.255000 0.040000
0.560102 0.255000 0.040000
0.631120 0.255000 0.040000
0.702827 0.255000 0.040000
0.775168 0.255000 0.040000
0.848093 0.255000 0.040000
0.921563 0.255000 0.040000
0.995542 0.255000 0.040000
1.000000 0.255000 0.040000
0.000000 0.318750 0.040000
0.032234 0.318750 0.040000
0.091608 0.318750 0.040000
0.154029 0.318750 0.040000
0.218520 0.318750 0.040000
0.284595 0.318750 0.040000
0.351963 0.318750 0.040000
0.420427 0.318750 0.040000
0.489842 0.318750 0.040000
0.560102 0.318750 0.040000
0.631120 0.318750 0.040000
0.702827 0.318750 0.040000
0.775168 0.318750 0.040000
0.848093 0.318750 0.040000
0.921563 0.318750 0.040000
0.995542 0.318750 0.040000
1.000000 0.318750 0.040000
0.000000 0.382500 0.040000
0.032234 0.382500 0.040000
0.091608 0.382500 0.040000
0.154029 0.382500 0.040000
0.218520 0.382500 0.040000
0.284595 0.382500 0.040000
0.351963 0.382500 0.040000
0.420427 0.382500 0.040000
0.489842 0.382500 0.040000
0.560102 0.382500 0.040000
0.631120 0.382500 0.040000
0.702827 0.382500 0.040000
0.775168 0.382500 0.040000
0.848093 0.382500 0.040000
0.921563 0.382500 0.040000
0.995542 0.382500 0.040000
1.000000 0.382500 0.040000
0.000000 0.446250 0.040000
0.032234 0.446250 0.040000
0.091608 0.446250 0.040000
0.154029 0.446250 0.040000
0.218520 0.446250 0.040000
0.284595 0.446250 0.040000
0.351963 0.446250 0.040000
0.420427 0.446250 0.040000
0.489842 0.446250 0.040000
0.560102 0.446250 0.040000
0.631120 0.446250 0.040000
0.702827 0.446250 0.040000
0.775168 0.446250 0.040000
0.848093 0.446250 0.040000
0.921563 0.446250 0.040000
0.995542 0.446250 0.040000
1.000000 0.446250 0.040000
0.000000 0.510000 0.040000
0.032234 0.510000 0.040000
0.091608 0.510000 0.040000
0.154029 0.510000 0.040000
0.218520 0.510000 0.040000
0.284595 0.510000 0.040000
0.351963 0.510000 0.040000
0.420427 0.510000 0.040000
0.489842 0.510000 0.040000
0.560102 0.510000 0.040000
0.631120 0.510000 0.040000
0.702827 0.510000 0.040000
0.775168 0.510000 0.040000
0.848093 0.510000 0.040000
0.921563 0.510000 0.040000
0.995542 0.510000 0.040000
1.000000 0.510000 0.040000
0.000000 0.573750 0.040000
0.032234 0.573750 0.040000
0.091608 0.573750 0.040000
0.154029 0.573750 0.040000
0.218520 0.573750 0.040000
0.284595 0.573750 0.040000
0.351963 0.573750 0.040000
0.420427 0.573750 0.040000
0.489842 0.573750 0.040000
0.560102 0.573750 0.040000
0.631120 0.573750 0.040000
0.702827 0.573750 0.040000
0.775168 0.573750 0.040000
0.848093 0.573750 0.040000
0.921563 0.573750 0.040000
0.995542 0.573750 0.040000
1.000000 0.573750 0.040000
0.000000 0.637500 0.040000
0.032234 0.637500 0.040000
0.091608 0.637500 0.040000
0.154029 0.637500 0.040000
0.218520 0.637500 0.040000
0.284595 0.637500 0.040000
0.351963 0.637500 0.040000
0.420427 0.637500 0.040000
0.489842 0.637500 0.040000
0.560102 0.637500 0.040000
0.631120 0.637500 0.040000
0.702827 0.637500 0.040000
0.775168 0.637500 0.040000
0.848093 0.637500 0.040000
0.921563 0.637500 0.040000
0.995542 0.637500 0.040000
1.000000 0.637500 0.040000
0.000000 0.701250 0.040000
0.032234 0.701250 0.040000
0.091608 0.701250 0.040000
0.154029 0.701250 0.040000
0.218520 0.701250 0.040000
0.284595 0.701250 0.040000
0.351963 0.701250 0.040000
0.420427 0.701250 0.040000
0.489842 0.701250 0.040000
0.560102 0.701250 0.040000
0.631120 0.701250 0.040000
0.702827 0.701250 0.040000
0.775168 0.701250 0.040000
0.848093 0.701250 0.040000
0.921563 0.701250 0.040000
0.995542 0.701250 0.040000
1.000000 0.701250 0.040000
0.000000 0.765000 0.040000
0.032234 0.765000 0.040000
0.091608 0.765000 0.040000
0.154029 0.765000 0.040000
0.218520 0.765000 0.040000
0.284595 0.765000 0.040000
0.351963 0.765000 0.040000
0.420427 0.765000 0.040000
0.489842 0.765000 0.040000
0.560102 0.765000 0.040000
0.631120 0.765000 0.040000
0.702827 0.765000 0.040000
0.775168 0.765000 0.040000
0.848093 0.765000 0.040000
0.921563 0.765000 0.040000
0.995542 0.765000 0.040000
1.000000 0.765000 0.040000
0.000000 0.828750 0.040000
0.032234 0.828750 0.040000
0.091608 0.828750 0.040000
0.154029 0.828750 0.040000
0.218520 0.828750 0.040000
0.284595 0.828750 0.040000
0.351963 0.828750 0.040000
0.420427 0.828750 0.040000
0.489842 0.828750 0.040000
0.560102 0.828750 0.040000
0.631120 0.828750 0.040000
0.702827 0.828750 0.040000
0.775168 0.828750 0.040000
0.848093 0.828750 0.040000
0.921563 0.828750 0.040000
0.995542 0.828750 0.040000
1.000000 0.828750 0.040000
0.000000 0.892500 0.040000
0.032234 0.892500 0.040000
0.091608 0.892500 0.040000
0.154029 0.892500 0.040000
0.218520 0.892500 0.040000
0.284595 0.892500 0.040000
0.351963 0.892500 0.040000
0.420427 0.892500 0.040000
0.489842 0.892500 0.040000
0.560102 0.892500 0.040000
0.631120 0.892500 0.040000
0.702827 0.892500 0.040000
0.775168 0.892500 0.040000
0.848093 0.892500 0.040000
0.921563 0.892500 0.040000
0.995542 0.892500 0.040000
1.000000 0.892500 0.040000
0.000000 0.956250 0.040000
0.032234 0.956250 0.040000
0.091608 0.956250 0.040000
0.154029 0.956250 0.040000
0.218520 0.956250 0.040000
0.284595 0.956250 0.040000
0.351963 0.956250 0.040000
0.420427 0.956250 0.040000
0.489842 0.956250 0.040000
0.560102 0.956250 0.040000
0.631120 0.956250 0.040000
0.702827 0.956250 0.040000
0.775168 0.956250 0.040000
0.848093 0.956250 0.040000
0.921563 0.956250 0.040000
0.995542 0.956250 0.040000
1.000000 0.956250 0.040000
0.000000 1.000000 0.040000
0.032234 1.000000 0.040000
0.091608 1.000000 0.040000
0.154029 1.000000 0.040000
0.218520 1.000000 0.040000
0.284595 1.000000 0.040000
0.351963 1.000000 0.040000
0.420427 1.000000 0.040000
0.489842 1.000000 0.040000
0.560102 1.000000 0.040000
0.631120 1.000000 0.040000
0.702827 1.000000 0.040000
0.775168 1.000000 0.040000
0.848093 1.000000 0.040000
0.921563 1.000000 0.040000
0.995542 1.000000 0.040000
1.000000 1.000000 0.040000
0.000000 0.000000 0.099976
0.032234 0.000000 0.099976
0.091608 0.000000 0.099976
0.154029 0.000000 0.099976
0.218520 0.000000 0.099976
0.284595 0.000000 0.099976
0.351963 0.000000 0.099976
0.420427 0.000000 0.099976
0.489842 0.000000 0.099976
0.560102 0.000000 0.099976
0.631120 0.000000 0.099976
0.702827 0.000000 0.099976
0.775168 0.000000 0.099976
0.848093 0.000000 0.099976
0.921563 0.000000 0.099976
0.995542 0.000000 0.099976
1.000000 0.000000 0.099976
0.000000 0.063750 0.099976
0.032234 0.063750 0.099976
0.091608 0.063750 0.099976
0.154029 0.063750 0.099976
0.218520 0.063750 0.099976
0.284595 0.063750 0.099976
0.351963 0.063750 0.099976
0.420427 0.063750 0.099976
0.489842 0.063750 0.099976
0.560102 0.063750 0.099976
0.631120 0.063750 0.099976
0.702827 0.063750 0.099976
0.775168 0.063750 0.099976
0.848093 0.063750 0.099976
0.921563 0.063750 0.099976
0.995542 0.063750 0.099976
1.000000 0.063750 0.099976
0.000000 0.127500 0.099976
0.032234 0.127500 0.099976
0.091608 0.127500 0.099976
0.154029 0.127500 0.099976
0.218520 0.127500 0.099976
0.284595 0.127500 0.099976
0.351963 0.127500 0.099976
0.420427 0.127500 0.099976
0.489842 0.127500 0.099976
0.560102 0.127500 0.099976
0.631120 0.127500 0.099976
0.702827 0.127500 0.099976
0.775168 0.127500 0.099976
0.848093 0.127500 0.099976
0.921563 0.127500 0.099976
0.995542 0.127500 0.099976
1.000000 0.127500 0.099976
0.000000 0.191250 0.099976
0.032234 0.191250 0.099976
0.091608 0.191250 0.099976
0.154029 0.191250 0.099976
0.218520 0.191250 0.099976
0.284595 0.191250 0.099976
0.351963 0.191250 0.099976
0.420427 0.191250 0.099976
0.489842 0.191250 0.099976
0.560102 0.191250 0.099976
0.631120 0.191250 0.099976
0.702827 0.191250 0.099976
0.775168 0.191250 0.099976
0.848093 0.191250 0.099976
0.921563 0.191250 0.099976
0.995542 0.191250 0.099976
1.000000 0.191250 0.099976
0.000000 0.255000 0.099976
0.032234 0.255000 0.099976
0.091608 0.255000 0.099976
0.154029 0.255000 0.099976
0.218520 0.255000 0.099976
0.284595 0.255000 0.099976
0.351963 0.255000 0.099976
0.420427 0.255000 0.099976
0.489842 0.255000 0.099976
0.560102 0.255000 0.099976
0.631120 0.255000 0.099976
0.702827 0.255000 0.099976
0.775168 0.255000 0.099976
0.848093 0.255000 0.099976
0.921563 0.255000 0.099976
0.995542 0.255000 0.099976
1.000000 0.255000 0.099976
0.000000 0.318750 0.099976
0.032234 0.318750 0.099976
0.091608 0.318750 0.099976
0.154029 0.318750 0.099976
0.218520 0.318750 0.099976
0.284595 0.318750 0.099976
0.351963 0.318750 0.099976
0.420427 0.318750 0.099976
0.489842 0.318750 0.099976
0.560102 0.318750 0.099976
0.631120 0.318750 0.099976
0.702827 0.318750 0.099976
0.775168 0.318750 0.099976
0.848093 0.318750 0.099976
0.921563 0.318750 0.099976
0.995542 0.318750 0.099976
1.000000 0.318750 0.099976
0.000000 0.382500 0.099976
0.032234 0.382500 0.099976
0.091608 0.382500 0.099976
0.154029 0.382500 0.099976
0.218520 0.382500 0.099976
0.284595 0.382500 0.099976
0.351963 0.382500 0.099976
0.420427 0.382500 0.099976
0.489842 0.382500 0.099976
0.560102 0.382500 0.099976
0.631120 0.382500 0.099976
0.702827 0.382500 0.099976
0.775168 0.382500 0.099976
0.848093 0.382500 0.099976
0.921563 0.382500 0.099976
0.995542 0.382500 0.099976
1.000000 0.382500 0.099976
0.000000 0.446250 0.099976
0.032234 0.446250 0.099976
0.091608 0.446250 0.099976
0.154029 0.446250 0.099976
0.218520 0.446250 0.099976
0.284595 0.446250 0.099976
0.351963 0.446250 0.099976
0.420427 0.446250 0.099976
0.489842 0.446250 0.099976
0.560102 0.446250 0.099976
0.631120 0.446250 0.099976
0.702827 0.446250 0.099976
0.775168 0.446250 0.099976
0.848093 0.446250 0.099976
0.921563 0.446250 0.099976
0.995542 0.446250 0.099976
1.000000 0.446250 0.099976
0.000000 0.510000 0.099976
0.032234 0.510000 0.099976
0.091608 0.510000 0.099976
0.154029 0.510000 0.099976
0.218520 0.510000 0.099976
0.284595 0.510000 0.099976
0.351963 0.510000 0.099976
0.420427 0.510000 0.099976
0.489842 0.510000 0.099976
0.560102 0.510000 0.099976
0.631120 0.510000 0.099976
0.702827 0.510000 0.099976
0.775168 0.510000 0.099976
0.848093 0.510000 0.099976
0.921563 0.510000 0.099976
0.995542 0.510000 0.099976
1.000000 0.510000 0.099976
0.000000 0.573750 0.099976
0.032234 0.573750 0.099976
0.091608 0.573750 0.099976
0.154029 0.573750 0.099976
0.218520 0.573750 0.099976
0.284595 0.573750 0.099976
0.351963 0.573750 0.099976
0.420427 0.573750 0.099976
0.489842 0.573750 0.099976
0.560102 0.573750 0.099976
0.631120 0.573750 0.099976
0.702827 0.573750 0.099976
0.775168 0.573750 0.099976
0.848093 0.573750 0.099976
0.921563 0.573750 0.099976
0.995542 0.573750 0.099976
1.000000 0.573750 0.099976
0.000000 0.637500 0.099976
0.032234 0.637500 0.099976
0.091608 0.637500 0.099976
0.154029 0.637500 0.099976
0.218520 0.637500 0.099976
0.284595 0.637500 0.099976
0.351963 0.637500 0.099976
0.420427 0.637500 0.099976
0.489842 0.637500 0.099976
0.560102 0.637500 0.099976
0.631120 0.637500 0.099976
0.702827 0.637500 0.099976
0.775168 0.637500 0.099976
0.848093 0.637500 0.099976
0.921563 0.637500 0.099976
0.995542 0.637500 0.099976
1.000000 0.637500 0.099976
0.000000 0.701250 0.099976
0.032234 0.701250 0.099976
0.091608 0.701250 0.099976
0.154029 0.701250 0.099976
0.218520 0.701250 0.099976
0.284595 0.701250 0.099976
0.351963 0.701250 0.099976
0.420427 0.701250 0.099976
0.489842 0.701250 0.099976
0.560102 0.701250 0.099976
0.631120 0.701250 0.099976
0.702827 0.701250 0.099976
0.775168 0.701250 0.099976
0.848093 0.701250 0.099976
0.921563 0.701250 0.099976
0.995542 0.701250 0.099976
1.000000 0.701250 0.099976
0.000000 0.765000 0.099976
0.032234 0.765000 0.099976
0.091608 0.765000 0.099976
0.154029 0.765000 0.099976
0.218520 0.765000 0.099976
0.284595 0.765000 0.099976
0.351963 0.765000 0.099976
0.420427 0.765000 0.099976
0.489842 0.765000 0.099976
0.560102 0.765000 0.099976
0.631120 0.765000 0.099976
0.702827 0.765000 0.099976
0.775168 0.765000 0.099976
0.848093 0.765000 0.099976
0.921563 0.765000 0.099976
0.995542 0.765000 0.099976
1.000000 0.765000 0.099976
0.000000 0.828750 0.099976
0.032234 0.828750 0.099976
0.091608 0.828750 0.099976
0.154029 0.828750 0.099976
0.218520 0.828750 0.099976
0.284595 0.828750 0.099976
0.351963 0.828750 0.099976
0.420427 0.828750 0.099976
0.489842 0.828750 0.099976
0.560102 0.828750 0.099976
0.631120 0.828750 0.099976
0.702827 0.828750 0.099976
0.775168 0.828750 0.099976
0.848093 0.828750 0.099976
0.921563 0.828750 0.099976
0.995542 0.828750 0.099976
1.000000 0.828750 0.099976
0.000000 0.892500 0.099976
0.032234 0.892500 0.099976
0.091608 0.892500 0.099976
0.154029 0.892500 0.099976
0.218520 0.892500 0.099976
0.284595 0.892500 0.099976
0.351963 0.892500 0.099976
0.420427 0.892500 0.099976
0.489842 0.892500 0.099976
0.560102 0.892500 0.099976
0.631120 0.892500 0.099976
0.702827 0.892500 0.099976
0.775168 0.892500 0.099976
0.848093 0.892500 0.099976
0.921563 0.892500 0.099976
0.995542 0.892500 0.099976
1.000000 0.892500 0.099976
0.000000 0.956250 0.099976
0.032234 0.956250 0.099976
0.091608 0.956250 0.099976
0.154029 0.956250 0.099976
0.218520 0.956250 0.099976
0.284595 0.956250 0.099976
0.351963 0.956250 0.099976
0.420427 0.956250 0.099976
0.489842 0.956250 0.099976
0.560102 0.956250 0.099976
0.631120 0.956250 0.099976
0.702827 0.956250 0.099976
0.775168 0.956250 0.099976
0.848093 0.956250 0.099976
0.921563 0.956250 0.099976
0.995542 0.956250 0.099976
1.000000 0.956250 0.099976
0.000000 1.000000 0.099976
0.032234 1.000000 0.099976
0.091608 1.000000 0.099976
0.154029 1.000000 0.099976
0.218520 1.000000 0.099976
0.284595 1.000000 0.099976
0.351963 1.000000 0.099976
0.420427 1.000000 0.099976
0.489842 1.000000 0.099976
0.560102 1.000000 0.099976
0.631120 1.000000 0.099976
0.702827 1.000000 0.099976
0.775168 1.000000 0.099976
0.848093 1.000000 0.099976
0.921563 1.000000 0.099976
0.995542 1.000000 0.099976
1.000000 1.000000 0.099976
0.000000 0.000000 0.159805
0.032234 0.000000 0.159805
0.091608 0.000000 0.159805
0.154029 0.000000 0.159805
0.218520 0.000000 0.159805
0.284595 0.000000 0.159805
0.351963 0.000000 0.159805
0.420427 0.000000 0.159805
0.489842 0.000000 0.159805
0.560102 0.000000 0.159805
0.631120 0.000000 0.159805
0.702827 0.000000 0.159805
0.775168 0.000000 0.159805
0.848093 0.000000 0.159805
0.921563 0.000000 0.159805
0.995542 0.000000 0.159805
1.000000 0.000000 0.159805
0.000000 0.063750 0.159805
0.032234 0.063750 0.159805
0.091608 0.063750 0.159805
0.154029 0.063750 0.159805
0.218520 0.063750 0.159805
0.284595 0.063750 0.159805
0.351963 0.063750 0.159805
0.420427 0.063750 0.159805
0.489842 0.063750 0.159805
0.560102 0.063750 0.159805
0.631120 0.063750 0.159805
0.702827 0.063750 0.159805
0.775168 0.063750 0.159805
0.848093 0.063750 0.159805
0.921563 0.063750 0.159805
0.995542 0.063750 0.159805
1.000000 0.063750 0.159805
0.000000 0.127500 0.159805
0.032234 0.127500 0.159805
0.091608 0.127500 0.159805
0.154029 0.127500 0.159805
0.218520 0.127500 0.159805
0.284595 0.127500 0.159805
0.351963 0.127500 0.159805
0.420427 0.127500 0.159805
0.489842 0.127500 0.159805
0.560102 0.127500 0.159805
0.631120 0.127500 0.159805
0.702827 0.127500 0.159805
0.775168 0.127500 0.159805
0.848093 0.127500 0.159805
0.921563 0.127500 0.159805
0.995542 0.127500 0.159805
1.000000 0.127500 0.159805
0.000000 0.191250 0.159805
0.032234 0.191250 0.159805
0.091608 0.191250 0.159805
0.154029 0.191250 0.159805
0.218520 0.191250 0.159805
0.284595 0.191250 0.159805
0.351963 0.191250 0.159805
0.420427 0.191250 0.159805
0.489842 0.191250 0.159805
0.560102 0.191250 0.159805
0.631120 0.191250 0.159805
0.702827 0.191250 0.159805
0.775168 0.191250 0.159805
0.848093 0.191250 0.159805
0.921563 0.191250 0.159805
0.995542 0.191250 0.159805
1.000000 0.191250 0.159805
0.000000 0.255000 0.159805
0.032234 0.255000 0.159805
0.091608 0.255000 0.159805
0.154029 0.255000 0.159805
0.218520 0.255000 0.159805
0.284595 0.255000 0.159805
0.351963 0.255000 0.159805
0.420427 0.255000 0.159805
0.489842 0.255000 0.159805
0.560102 0.255000 0.159805
0.631120 0.255000 0.159805
0.702827 0.255000 0.159805
0.775168 0.255000 0.159805
0.848093 0.255000 0.159805
0.921563 0.255000 0.159805
0.995542 0.255000 0.159805
1.000000 0.255000 0.159805
0.000000 0.318750 0.159805
0.032234 0.318750 0.159805
0.091608 0.318750 0.159805
0.154029 0.318750 0.159805
0.218520 0.318750 0.159805
0.284595 0.318750 0.159805
0.351963 0.318750 0.159805
0.420427 0.318750 0.159805
0.489842 0.318750 0.159805
0.560102 0.318750 0.159805
0.631120 0.318750 0.159805
0.702827 0.318750 0.159805
0.775168 0.318750 0.159805
0.848093 0.318750 0.159805
0.921563 0.318750 0.159805
0.995542 0.318750 0.159805
1.000000 0.318750 0.159805
0.000000 0.382500 0.159805
0.032234 0.382500 0.159805
0.091608 0.382500 0.159805
0.154029 0.382500 0.159805
0.218520 0.382500 0.159805
0.284595 0.382500 0.159805
0.351963 0.382500 0.159805
0.420427 0.382500 0.159805
0.489842 0.382500 0.159805
0.560102 0.382500 0.159805
0.631120 0.382500 0.159805
0.702827 0.382500 0.159805
0.775168 0.382500 0.159805
0.848093 0.382500 0.159805
0.921563 0.382500 0.159805
0.995542 0.382500 0.159805
1.000000 0.382500 0.159805
0.000000 0.446250 0.159805
0.032234 0.446250 0.159805
0.091608 0.446250 0.159805
0.154029 0.446250 0.159805
0.218520 0.446250 0.159805
0.284595 0.446250 0.159805
0.351963 0.446250 0.159805
0.420427 0.446250 0.159805
0.489842 0.446250 0.159805
0.560102 0.446250 0.159805
0.631120 0.446250 0.159805
0.702827 0.446250 0.159805
0.775168 0.446250 0.159805
0.848093 0.446250 0.159805
0.921563 0.446250 0.159805
0.995542 0.446250 0.159805
1.000000 0.446250 0.159805
0.000000 0.510000 0.159805
0.032234 0.510000 0.159805
0.091608 0.510000 0.159805
0.154029 0.510000 0.159805
0.218520 0.510000 0.159805
0.284595 0.510000 0.159805
0.351963 0.510000 0.159805
0.420427 0.510000 0.159805
0.489842 0.510000 0.159805
0.560102 0.510000 0.159805
0.631120 0.510000 0.159805
0.702827 0.510000 0.159805
0.775168 0.510000 0.159805
0.848093 0.510000 0.159805
0.921563 0.510000 0.159805
0.995542 0.510000 0.159805
1.000000 0.510000 0.159805
0.000000 0.573750 0.159805
0.032234 0.573750 0.159805
0.091608 0.573750 0.159805
0.154029 0.573750 0.159805
0.218520 0.573750 0.159805
0.284595 0.573750 0.159805
0.351963 0.573750 0.159805
0.420427 0.573750 0.159805
0.489842 0.573750 0.159805
0.560102 0.573750 0.159805
0.631120 0.573750 0.159805
0.702827 0.573750 0.159805
0.775168 0.573750 0.159805
0.848093 0.573750 0.159805
0.921563 0.573750 0.159805
0.995542 0.573750 0.159805
1.000000 0.573750 0.159805
0.000000 0.637500 0.159805
0.032234 0.637500 0.159805
0.091608 0.637500 0.159805
0.154029 0.637500 0.159805
0.218520 0.637500 0.159805
0.284595 0.637500 0.159805
0.351963 0.637500 0.159805
0.420427 0.637500 0.159805
0.489842 0.637500 0.159805
0.560102 0.637500 0.159805
0.631120 0.637500 0.159805
0.702827 0.637500 0.159805
0.775168 0.637500 0.159805
0.848093 0.637500 0.159805
0.921563 0.637500 0.159805
0.995542 0.637500 0.159805
1.000000 0.637500 0.159805
0.000000 0.701250 0.159805
0.032234 0.701250 0.159805
0.091608 0.701250 0.159805
0.154029 0.701250 0.159805
0.218520 0.701250 0.159805
0.284595 0.701250 0.159805
0.351963 0.701250 0.159805
0.420427 0.701250 0.159805
0.489842 0.701250 0.159805
0.560102 0.701250 0.159805
0.631120 0.701250 0.159805
0.702827 0.701250 0.159805
0.775168 0.701250 0.159805
0.848093 0.701250 0.159805
0.921563 0.701250 0.159805
0.995542 0.701250 0.159805
1.000000 0.701250 0.159805
0.000000 0.765000 0.159805
0.032234 0.765000 0.159805
0.091608 0.765000 0.159805
0.154029 0.765000 0.159805
0.218520 0.765000 0.159805
0.284595 0.765000 0.159805
0.351963 0.765000 0.159805
0.420427 0.765000 0.159805
0.489842 0.765000 0.159805
0.560102 0.765000 0.159805
0.631120 0.765000 0.159805
0.702827 0.765000 0.159805
0.775168 0.765000 0.159805
0.848093 0.765000 0.159805
0.921563 0.765000 0.159805
0.995542 0.765000 0.159805
1.000000 0.765000 0.159805
0.000000 0.828750 0.159805
0.032234 0.828750 0.159805
0.091608 0.828750 0.159805
0.154029 0.828750 0.159805
0.218520 0.828750 0.159805
0.284595 0.828750 0.159805
0.351963 0.828750 0.159805
0.420427 0.828750 0.159805
0.489842 0.828750 0.159805
0.560102 0.828750 0.159805
0.631120 0.828750 0.159805
0.702827 0.828750 0.159805
0.775168 0.828750 0.159805
0.848093 0.828750 0.159805
0.921563 0.828750 0.159805
0.995542 0.828750 0.159805
1.000000 0.828750 0.159805
0.000000 0.892500 0.159805
0.032234 0.892500 0.159805
0.091608 0.892500 0.159805
0.154029 0.892500 0.159805
0.218520 0.892500 0.159805
0.284595 0.892500 0.159805
0.351963 0.892500 0.159805
0.420427 0.892500 0.159805
0.489842 0.892500 0.159805
0.560102 0.892500 0.159805
0.631120 0.892500 0.159805
0.702827 0.892500 0.159805
0.775168 0.892500 0.159805
0.848093 0.892500 0.159805
0.921563 0.892500 0.159805
0.995542 0.892500 0.159805
1.000000 0.892500 0.159805
0.000000 0.956250 0.159805
0.032234 0.956250 0.159805
0.091608 0.956250 0.159805
0.154029 0.956250 0.159805
0.218520 0.956250 0.159805
0.284595 0.956250 0.159805
0.351963 0.956250 0.159805
0.420427 0.956250 0.159805
0.489842 0.956250 0.159805
0.560102 0.956250 0.159805
0.631120 0.956250 0.159805
0.702827 0.956250 0.159805
0.775168 0.956250 0.159805
0.848093 0.956250 0.159805
0.921563 0.956250 0.159805
0.995542 0.956250 0.159805
1.000000 0.956250 0.159805
0.000000 1.000000 0.159805
0.032234 1.000000 0.159805
0.091608 1.000000 0.159805
0.154029 1.000000 0.159805
0.218520 1.000000 0.159805
0.284595 1.000000 0.159805
0.351963 1.000000 0.159805
0.420427 1.000000 0.159805
0.489842 1.000000 0.159805
0.560102 1.000000 0.159805
0.631120 1.000000 0.159805
0.702827 1.000000 0.159805
0.775168 1.000000 0.159805
0.848093 1.000000 0.159805
0.921563 1.000000 0.159805
0.995542 1.000000 0.159805
1.000000 1.000000 0.159805
0.000000 0.000000 0.219341
0.032234 0.000000 0.219341
0.091608 0.000000 0.219341
0.154029 0.000000 0.219341
0.218520 0.000000 0.219341
0.284595 0.000000 0.219341
0.351963 0.000000 0.219341
0.420427 0.000000 0.219341
0.489842 0.000000 0.219341
0.560102 0.000000 0.219341
0.631120 0.000000 0.219341
0.702827 0.000000 0.219341
0.775168 0.000000 0.219341
0.848093 0.000000 0.219341
0.921563 0.000000 0.219341
0.995542 0.000000 0.219341
