assets/luts/synth_teal_orange.cube
# Synthetic Teal & Orange LUT — Mahabharata Bot
TITLE "Teal Orange Synth"
LUT_3D_SIZE 9
DOMAIN_MIN 0.0 0.0 0.0
DOMAIN_MAX 1.0 1.0 1.0
0.000000 0.000000 0.040000
0.091608 0.000000 0.040000
0.218520 0.000000 0.040000
0.351963 0.000000 0.040000
0.489842 0.000000 0.040000
0.631120 0.000000 0.040000
0.775168 0.000000 0.040000
0.921563 0.000000 0.040000
1.000000 0.000000 0.040000
0.000000 0.127500 0.040000
0.091608 0.127500 0.040000
0.218520 0.127500 0.040000
0.351963 0.127500 0.040000
0.489842 0.127500 0.040000
0.631120 0.127500 0.040000
0.775168 0.127500 0.040000
0.921563 0.127500 0.040000
1.000000 0.127500 0.040000
0.000000 0.255000 0.040000
0.091608 0.255000 0.040000
0.218520 0.255000 0.040000
0.351963 0.255000 0.040000
0.489842 0.255000 0.040000
0.631120 0.255000 0.040000
0.775168 0.255000 0.040000
0.921563 0.255000 0.040000
1.000000 0.255000 0.040000
0.000000 0.382500 0.040000
0.091608 0.382500 0.040000
0.218520 0.382500 0.040000
0.351963 0.382500 0.040000
0.489842 0.382500 0.040000
0.631120 0.382500 0.040000
0.775168 0.382500 0.040000
0.921563 0.382500 0.040000
1.000000 0.382500 0.040000
0.000000 0.510000 0.040000
0.091608 0.510000 0.040000
0.218520 0.510000 0.040000
0.351963 0.510000 0.040000
0.489842 0.510000 0.040000
0.631120 0.510000 0.040000
0.775168 0.510000 0.040000
0.921563 0.510000 0.040000
1.000000 0.510000 0.040000
0.000000 0.637500 0.040000
0.091608 0.637500 0.040000
0.218520 0.637500 0.040000
0.351963 0.637500 0.040000
0.489842 0.637500 0.040000
0.631120 0.637500 0.040000
0.775168 0.637500 0.040000
0.921563 0.637500 0.040000
1.000000 0.637500 0.040000
0.000000 0.765000 0.040000
0.091608 0.765000 0.040000
0.218520 0.765000 0.040000
0.351963 0.765000 0.040000
0.489842 0.765000 0.040000
0.631120 0.765000 0.040000
0.775168 0.765000 0.040000
0.921563 0.765000 0.040000
1.000000 0.765000 0.040000
0.000000 0.892500 0.040000
0.091608 0.892500 0.040000
0.218520 0.892500 0.040000
0.351963 0.892500 0.040000
0.489842 0.892500 0.040000
0.631120 0.892500 0.040000
0.775168 0.892500 0.040000
0.921563 0.892500 0.040000
1.000000 0.892500 0.040000
0.000000 1.000000 0.040000
0.091608 1.000000 0.040000
0.218520 1.000000 0.040000
0.351963 1.000000 0.040000
0.489842 1.000000 0.040000
0.631120 1.000000 0.040000
0.775168 1.000000 0.040000
0.921563 1.000000 0.040000
1.000000 1.000000 0.040000
0.000000 0.000000 0.159805
0.091608 0.000000 0.159805
0.218520 0.000000 0.159805
0.351963 0.000000 0.159805
0.489842 0.000000 0.159805
0.631120 0.000000 0.159805
0.775168 0.000000 0.159805
0.921563 0.000000 0.159805
1.000000 0.000000 0.159805
0.000000 0.127500 0.159805
0.091608 0.127500 0.159805
0.218520 0.127500 0.159805
0.351963 0.127500 0.159805
0.489842 0.127500 0.159805
0.631120 0.127500 0.159805
0.775168 0.127500 0.159805
0.921563 0.127500 0.159805
1.000000 0.127500 0.159805
0.000000 0.255000 0.159805
0.091608 0.255000 0.159805
0.218520 0.255000 0.159805
0.351963 0.255000 0.159805
0.489842 0.255000 0.159805
0.631120 0.255000 0.159805
0.775168 0.255000 0.159805
0.921563 0.255000 0.159805
1.000000 0.255000 0.159805
0.000000 0.382500 0.159805
0.091608 0.382500 0.159805
0.218520 0.382500 0.159805
0.351963 0.382500 0.159805
0.489842 0.382500 0.159805
0.631120 0.382500 0.159805
0.775168 0.382500 0.159805
0.921563 0.382500 0.159805
1.000000 0.382500 0.159805
0.000000 0.510000 0.159805
0.091608 0.510000 0.159805
0.218520 0.510000 0.159805
0.351963 0.510000 0.159805
0.489842 0.510000 0.159805
0.631120 0.510000 0.159805
0.775168 0.510000 0.159805
0.921563 0.510000 0.159805
1.000000 0.510000 0.159805
0.000000 0.637500 0.159805
0.091608 0.637500 0.159805
0.218520 0.637500 0.159805
0.351963 0.637500 0.159805
0.489842 0.637500 0.159805
0.631120 0.637500 0.159805
0.775168 0.637500 0.159805
0.921563 0.637500 0.159805
1.000000 0.637500 0.159805
0.000000 0.765000 0.159805
0.091608 0.765000 0.159805
0.218520 0.765000 0.159805
0.351963 0.765000 0.159805
0.489842 0.765000 0.159805
0.631120 0.765000 0.159805
0.775168 0.765000 0.159805
0.921563 0.765000 0.159805
1.000000 0.765000 0.159805
0.000000 0.892500 0.159805
0.091608 0.892500 0.159805
0.218520 0.892500 0.159805
0.351963 0.892500 0.159805
0.489842 0.892500 0.159805
0.631120 0.892500 0.159805
0.775168 0.892500 0.159805
0.921563 0.892500 0.159805
1.000000 0.892500 0.159805
0.000000 1.000000 0.159805
0.091608 1.000000 0.159805
0.218520 1.000000 0.159805
0.351963 1.000000 0.159805
0.489842 1.000000 0.159805
0.631120 1.000000 0.159805
0.775168 1.000000 0.159805
0.921563 1.000000 0.159805
1.000000 1.000000 0.159805
0.000000 0.000000 0.278438
0.091608 0.000000 0.278438
0.218520 0.000000 0.278438
0.351963 0.000000 0.278438
0.489842 0.000000 0.278438
0.631120 0.000000 0.278438
0.775168 0.000000 0.278438
0.921563 0.000000 0.278438
1.000000 0.000000 0.278438
0.000000 0.127500 0.278438
0.091608 0.127500 0.278438
0.218520 0.127500 0.278438
0.351963 0.127500 0.278438
0.489842 0.127500 0.278438
0.631120 0.127500 0.278438
0.775168 0.127500 0.278438
0.921563 0.127500 0.278438
1.000000 0.127500 0.278438
0.000000 0.255000 0.278438
0.091608 0.255000 0.278438
0.218520 0.255000 0.278438
0.351963 0.255000 0.278438
0.489842 0.255000 0.278438
0.631120 0.255000 0.278438
0.775168 0.255000 0.278438
0.921563 0.255000 0.278438
1.000000 0.255000 0.278438
0.000000 0.382500 0.278438
0.091608 0.382500 0.278438
0.218520 0.382500 0.278438
0.351963 0.382500 0.278438
0.489842 0.382500 0.278438
0.631120 0.382500 0.278438
0.775168 0.382500 0.278438
0.921563 0.382500 0.278438
1.000000 0.382500 0.278438
0.000000 0.510000 0.278438
0.091608 0.510000 0.278438
0.218520 0.510000 0.278438
0.351963 0.510000 0.278438
0.489842 0.510000 0.278438
0.631120 0.510000 0.278438
0.775168 0.510000 0.278438
0.921563 0.510000 0.278438
1.000000 0.510000 0.278438
0.000000 0.637500 0.278438
0.091608 0.637500 0.278438
0.218520 0.637500 0.278438
0.351963 0.637500 0.278438
0.489842 0.637500 0.278438
0.631120 0.637500 0.278438
0.775168 0.637500 0.278438
0.921563 0.637500 0.278438
1.000000 0.637500 0.278438
0.000000 0.765000 0.278438
0.091608 0.765000 0.278438
0.218520 0.765000 0.278438
0.351963 0.765000 0.278438
0.489842 0.765000 0.278438
0.631120 0.765000 0.278438
0.775168 0.765000 0.278438
0.921563 0.765000 0.278438
1.000000 0.765000 0.278438
0.000000 0.892500 0.278438
0.091608 0.892500 0.278438
0.218520 0.892500 0.278438
0.351963 0.892500 0.278438
0.489842 0.892500 0.278438
0.631120 0.892500 0.278438
0.775168 0.892500 0.278438
0.921563 0.892500 0.278438
1.000000 0.892500 0.278438
0.000000 1.000000 0.278438
0.091608 1.000000 0.278438
0.218520 1.000000 0.278438
0.351963 1.000000 0.278438
0.489842 1.000000 0.278438
0.631120 1.000000 0.278438
0.775168 1.000000 0.278438
0.921563 1.000000 0.278438
1.000000 1.000000 0.278438
0.000000 0.000000 0.394727
0.091608 0.000000 0.394727
0.218520 0.000000 0.394727
0.351963 0.000000 0.394727
0.489842 0.000000 0.394727
0.631120 0.000000 0.394727
0.775168 0.000000 0.394727
0.921563 0.000000 0.394727
1.000000 0.000000 0.394727
0.000000 0.127500 0.394727
0.091608 0.127500 0.394727
0.218520 0.127500 0.394727
0.351963 0.127500 0.394727
0.489842 0.127500 0.394727
0.631120 0.127500 0.394727
0.775168 0.127500 0.394727
0.921563 0.127500 0.394727
1.000000 0.127500 0.394727
0.000000 0.255000 0.394727
0.091608 0.255000 0.394727
0.218520 0.255000 0.394727
0.351963 0.255000 0.394727
0.489842 0.255000 0.394727
0.631120 0.255000 0.394727
0.775168 0.255000 0.394727
0.921563 0.255000 0.394727
1.000000 0.255000 0.394727
0.000000 0.382500 0.394727
0.091608 0.382500 0.394727
0.218520 0.382500 0.394727
0.351963 0.382500 0.394727
0.489842 0.382500 0.394727
0.631120 0.382500 0.394727
0.775168 0.382500 0.394727
0.921563 0.382500 0.394727
1.000000 0.382500 0.394727
0.000000 0.510000 0.394727
0.091608 0.510000 0.394727
0.218520 0.510000 0.394727
0.351963 0.510000 0.394727
0.489842 0.510000 0.394727
0.631120 0.510000 0.394727
0.775168 0.510000 0.394727
0.921563 0.510000 0.394727
1.000000 0.510000 0.394727
0.000000 0.637500 0.394727
0.091608 0.637500 0.394727
0.218520 0.637500 0.394727
0.351963 0.637500 0.394727
0.489842 0.637500 0.394727
0.631120 0.637500 0.394727
0.775168 0.637500 0.394727
0.921563 0.637500 0.394727
1.000000 0.637500 0.394727
0.000000 0.765000 0.394727
0.091608 0.765000 0.394727
0.218520 0.765000 0.394727
0.351963 0.765000 0.394727
0.489842 0.765000 0.394727
0.631120 0.765000 0.394727
0.775168 0.765000 0.394727
0.921563 0.765000 0.394727
1.000000 0.765000 0.394727
0.000000 0.892500 0.394727
0.091608 0.892500 0.394727
0.218520 0.892500 0.394727
0.351963 0.892500 0.394727
0.489842 0.892500 0.394727
0.631120 0.892500 0.394727
0.775168 0.892500 0.394727
0.921563 0.892500 0.394727
1.000000 0.892500 0.394727
0.000000 1.000000 0.394727
0.091608 1.000000 0.394727
0.218520 1.000000 0.394727
0.351963 1.000000 0.394727
0.489842 1.000000 0.394727
0.631120 1.000000 0.394727
0.775168 1.000000 0.394727
0.921563 1.000000 0.394727
1.000000 1.000000 0.394727
0.000000 0.000000 0.507500
0.091608 0.000000 0.507500
0.218520 0.000000 0.507500
0.351963 0.000000 0.507500
0.489842 0.000000 0.507500
0.631120 0.000000 0.507500
0.775168 0.000000 0.507500
0.921563 0.000000 0.507500
1.000000 0.000000 0.507500
0.000000 0.127500 0.507500
0.091608 0.127500 0.507500
0.218520 0.127500 0.507500
0.351963 0.127500 0.507500
0.489842 0.127500 0.507500
0.631120 0.127500 0.507500
0.775168 0.127500 0.507500
0.921563 0.127500 0.507500
1.000000 0.127500 0.507500
0.000000 0.255000 0.507500
0.091608 0.255000 0.507500
0.218520 0.255000 0.507500
0.351963 0.255000 0.507500
0.489842 0.255000 0.507500
0.631120 0.255000 0.507500
0.775168 0.255000 0.507500
0.921563 0.255000 0.507500
1.000000 0.255000 0.507500
0.000000 0.382500 0.507500
0.091608 0.382500 0.507500
0.218520 0.382500 0.507500
0.351963 0.382500 0.507500
0.489842 0.382500 0.507500
0.631120 0.382500 0.507500
0.775168 0.382500 0.507500
0.921563 0.382500 0.507500
1.000000 0.382500 0.507500
0.000000 0.510000 0.507500
0.091608 0.510000 0.507500
0.218520 0.510000 0.507500
0.351963 0.510000 0.507500
0.489842 0.510000 0.507500
0.631120 0.510000 0.507500
0.775168 0.510000 0.507500
0.921563 0.510000 0.507500
1.000000 0.510000 0.507500
0.000000 0.637500 0.507500
0.091608 0.637500 0.507500
0.218520 0.637500 0.507500
0.351963 0.637500 0.507500
0.489842 0.637500 0.507500
0.631120 0.637500 0.507500
0.775168 0.637500 0.507500
0.921563 0.637500 0.507500
1.000000 0.637500 0.507500
0.000000 0.765000 0.507500
0.091608 0.765000 0.507500
0.218520 0.765000 0.507500
0.351963 0.765000 0.507500
0.489842 0.765000 0.507500
0.631120 0.765000 0.507500
0.775168 0.765000 0.507500
0.921563 0.765000 0.507500
1.000000 0.765000 0.507500
0.000000 0.892500 0.507500
0.091608 0.892500 0.507500
0.218520 0.892500 0.507500
0.351963 0.892500 0.507500
0.489842 0.892500 0.507500
0.631120 0.892500 0.507500
0.775168 0.892500 0.507500
0.921563 0.892500 0.507500
1.000000 0.892500 0.507500
0.000000 1.000000 0.507500
0.091608 1.000000 0.507500
0.218520 1.000000 0.507500
0.351963 1.000000 0.507500
0.489842 1.000000 0.507500
0.631120 1.000000 0.507500
0.775168 1.000000 0.507500
0.921563 1.000000 0.507500
1.000000 1.000000 0.507500
0.000000 0.000000 0.615586
0.091608 0.000000 0.615586
0.218520 0.000000 0.615586
0.351963 0.000000 0.615586
0.489842 0.000000 0.615586
0.631120 0.000000 0.615586
0.775168 0.000000 0.615586
0.921563 0.000000 0.615586
1.000000 0.000000 0.615586
0.000000 0.127500 0.615586
0.091608 0.127500 0.615586
0.218520 0.127500 0.615586
0.351963 0.127500 0.615586
0.489842 0.127500 0.615586
0.631120 0.127500 0.615586
0.775168 0.127500 0.615586
0.921563 0.127500 0.615586
1.000000 0.127500 0.615586
0.000000 0.255000 0.615586
0.091608 0.255000 0.615586
0.218520 0.255000 0.615586
0.351963 0.255000 0.615586
0.489842 0.255000 0.615586
0.631120 0.255000 0.615586
0.775168 0.255000 0.615586
0.921563 0.255000 0.615586
1.000000 0.255000 0.615586
0.000000 0.382500 0.615586
0.091608 0.382500 0.615586
0.218520 0.382500 0.615586
0.351963 0.382500 0.615586
0.489842 0.382500 0.615586
0.631120 0.382500 0.615586
0.775168 0.382500 0.615586
0.921563 0.382500 0.615586
1.000000 0.382500 0.615586
0.000000 0.510000 0.615586
0.091608 0.510000 0.615586
0.218520 0.510000 0.615586
0.351963 0.510000 0.615586
0.489842 0.510000 0.615586
0.631120 0.510000 0.615586
0.775168 0.510000 0.615586
0.921563 0.510000 0.615586
1.000000 0.510000 0.615586
0.000000 0.637500 0.615586
0.091608 0.637500 0.615586
0.218520 0.637500 0.615586
0.351963 0.637500 0.615586
0.489842 0.637500 0.615586
0.631120 0.637500 0.615586
0.775168 0.637500 0.615586
0.921563 0.637500 0.615586
1.000000 0.637500 0.615586
0.000000 0.765000 0.615586
0.091608 0.765000 0.615586
0.218520 0.765000 0.615586
0.351963 0.765000 0.615586
0.489842 0.765000 0.615586
0.631120 0.765000 0.615586
0.775168 0.765000 0.615586
0.921563 0.765000 0.615586
1.000000 0.765000 0.615586
0.000000 0.892500 0.615586
0.091608 0.892500 0.615586
0.218520 0.892500 0.615586
0.351963 0.892500 0.615586
0.489842 0.892500 0.615586
0.631120 0.892500 0.615586
0.775168 0.892500 0.615586
0.921563 0.892500 0.615586
1.000000 0.892500 0.615586
0.000000 1.000000 0.615586
0.091608 1.000000 0.615586
0.218520 1.000000 0.615586
0.351963 1.000000 0.615586
0.489842 1.000000 0.615586
0.631120 1.000000 0.615586
0.775168 1.000000 0.615586
0.921563 1.000000 0.615586
1.000000 1.000000 0.615586
0.000000 0.000000 0.717812
0.091608 0.000000 0.717812
0.218520 0.000000 0.717812
0.351963 0.000000 0.717812
0.489842 0.000000 0.717812
0.631120 0.000000 0.717812
0.775168 0.000000 0.717812
0.921563 0.000000 0.717812
1.000000 0.000000 0.717812
0.000000 0.127500 0.717812
0.091608 0.127500 0.717812
0.218520 0.127500 0.717812
0.351963 0.127500 0.717812
0.489842 0.127500 0.717812
0.631120 0.127500 0.717812
0.775168 0.127500 0.717812
0.921563 0.127500 0.717812
1.000000 0.127500 0.717812
0.000000 0.255000 0.717812
0.091608 0.255000 0.717812
0.218520 0.255000 0.717812
0.351963 0.255000 0.717812
0.489842 0.255000 0.717812
0.631120 0.255000 0.717812
0.775168 0.255000 0.717812
0.921563 0.255000 0.717812
1.000000 0.255000 0.717812
0.000000 0.382500 0.717812
0.091608 0.382500 0.717812
0.218520 0.382500 0.717812
0.351963 0.382500 0.717812
0.489842 0.382500 0.717812
0.631120 0.382500 0.717812
0.775168 0.382500 0.717812
0.921563 0.382500 0.717812
1.000000 0.382500 0.717812
0.000000 0.510000 0.717812
0.091608 0.510000 0.717812
0.218520 0.510000 0.717812
0.351963 0.510000 0.717812
0.489842 0.510000 0.717812
0.631120 0.510000 0.717812
0.775168 0.510000 0.717812
0.921563 0.510000 0.717812
1.000000 0.510000 0.717812
0.000000 0.637500 0.717812
0.091608 0.637500 0.717812
0.218520 0.637500 0.717812
0.351963 0.637500 0.717812
0.489842 0.637500 0.717812
0.631120 0.637500 0.717812
0.775168 0.637500 0.717812
0.921563 0.637500 0.717812
1.000000 0.637500 0.717812
0.000000 0.765000 0.717812
0.091608 0.765000 0.717812
0.218520 0.765000 0.717812
0.351963 0.765000 0.717812
0.489842 0.765000 0.717812
0.631120 0.765000 0.717812
0.775168 0.765000 0.717812
0.921563 0.765000 0.717812
1.000000 0.765000 0.717812
0.000000 0.892500 0.717812
0.091608 0.892500 0.717812
0.218520 0.892500 0.717812
0.351963 0.892500 0.717812
0.489842 0.892500 0.717812
0.631120 0.892500 0.717812
0.775168 0.892500 0.717812
0.921563 0.892500 0.717812
1.000000 0.892500 0.717812
0.000000 1.000000 0.717812
0.091608 1.000000 0.717812
0.218520 1.000000 0.717812
0.351963 1.000000 0.717812
0.489842 1.000000 0.717812
0.631120 1.000000 0.717812
0.775168 1.000000 0.717812
0.921563 1.000000 0.717812
1.000000 1.000000 0.717812
0.000000 0.000000 0.813008
0.091608 0.000000 0.813008
0.218520 0.000000 0.813008
0.351963 0.000000 0.813008
0.489842 0.000000 0.813008
0.631120 0.000000 0.813008
0.775168 0.000000 0.813008
0.921563 0.000000 0.813008
1.000000 0.000000 0.813008
0.000000 0.127500 0.813008
0.091608 0.127500 0.813008
0.218520 0.127500 0.813008
0.351963 0.127500 0.813008
0.489842 0.127500 0.813008
0.631120 0.127500 0.813008
0.775168 0.127500 0.813008
0.921563 0.127500 0.813008
1.000000 0.127500 0.813008
0.000000 0.255000 0.813008
0.091608 0.255000 0.813008
0.218520 0.255000 0.813008
0.351963 0.255000 0.813008
0.489842 0.255000 0.813008
0.631120 0.255000 0.813008
0.775168 0.255000 0.813008
0.921563 0.255000 0.813008
1.000000 0.255000 0.813008
0.000000 0.382500 0.813008
0.091608 0.382500 0.813008
0.218520 0.382500 0.813008
0.351963 0.382500 0.813008
0.489842 0.382500 0.813008
0.631120 0.382500 0.813008
0.775168 0.382500 0.813008
0.921563 0.382500 0.813008
1.000000 0.382500 0.813008
0.000000 0.510000 0.813008
0.091608 0.510000 0.813008
0.218520 0.510000 0.813008
0.351963 0.510000 0.813008
0.489842 0.510000 0.813008
0.631120 0.510000 0.813008
0.775168 0.510000 0.813008
0.921563 0.510000 0.813008
1.000000 0.510000 0.813008
0.000000 0.637500 0.813008
0.091608 0.637500 0.813008
0.218520 0.637500 0.813008
0.351963 0.637500 0.813008
0.489842 0.637500 0.813008
0.631120 0.637500 0.813008
0.775168 0.637500 0.813008
0.921563 0.637500 0.813008
1.000000 0.637500 0.813008
0.000000 0.765000 0.813008
0.091608 0.765000 0.813008
0.218520 0.765000 0.813008
0.351963 0.765000 0.813008
0.489842 0.765000 0.813008
0.631120 0.765000 0.813008
0.775168 0.765000 0.813008
0.921563 0.765000 0.813008
1.000000 0.765000 0.813008
0.000000 0.892500 0.813008
0.091608 0.892500 0.813008
0.218520 0.892500 0.813008
0.351963 0.892500 0.813008
0.489842 0.892500 0.813008
0.631120 0.892500 0.813008
0.775168 0.892500 0.813008
0.921563 0.892500 0.813008
1.000000 0.892500 0.813008
0.000000 1.000000 0.813008
0.091608 1.000000 0.813008
0.218520 1.000000 0.813008
0.351963 1.000000 0.813008
0.489842 1.000000 0.813008
0.631120 1.000000 0.813008
0.775168 1.000000 0.813008
0.921563 1.000000 0.813008
1.000000 1.000000 0.813008
0.000000 0.000000 0.900000
0.091608 0.000000 0.900000
0.218520 0.000000 0.900000
0.351963 0.000000 0.900000
0.489842 0.000000 0.900000
0.631120 0.000000 0.900000
0.775168 0.000000 0.900000
0.921563 0.000000 0.900000
1.000000 0.000000 0.900000
0.000000 0.127500 0.900000
0.091608 0.127500 0.900000
0.218520 0.127500 0.900000
0.351963 0.127500 0.900000
0.489842 0.127500 0.900000
0.631120 0.127500 0.900000
0.775168 0.127500 0.900000
0.921563 0.127500 0.900000
1.000000 0.127500 0.900000
0.000000 0.255000 0.900000
0.091608 0.255000 0.900000
0.218520 0.255000 0.900000
0.351963 0.255000 0.900000
0.489842 0.255000 0.900000
0.631120 0.255000 0.900000
0.775168 0.255000 0.900000
0.921563 0.255000 0.900000
1.000000 0.255000 0.900000
0.000000 0.382500 0.900000
0.091608 0.382500 0.900000
0.218520 0.382500 0.900000
0.351963 0.382500 0.900000
0.489842 0.382500 0.900000
0.631120 0.382500 0.900000
0.775168 0.382500 0.900000
0.921563 0.382500 0.900000
1.000000 0.382500 0.900000
0.000000 0.510000 0.900000
0.091608 0.510000 0.900000
0.218520 0.510000 0.900000
0.351963 0.510000 0.900000
0.489842 0.510000 0.900000
0.631120 0.510000 0.900000
0.775168 0.510000 0.900000
0.921563 0.510000 0.900000
1.000000 0.510000 0.900000
0.000000 0.637500 0.900000
0.091608 0.637500 0.900000
0.218520 0.637500 0.900000
0.351963 0.637500 0.900000
0.489842 0.637500 0.900000
0.631120 0.637500 0.900000
0.775168 0.637500 0.900000
0.921563 0.637500 0.900000
1.000000 0.637500 0.900000
0.000000 0.765000 0.900000
0.091608 0.765000 0.900000
0.218520 0.765000 0.900000
0.351963 0.765000 0.900000
0.489842 0.765000 0.900000
0.631120 0.765000 0.900000
0.775168 0.765000 0.900000
0.921563 0.765000 0.900000
1.000000 0.765000 0.900000
0.000000 0.892500 0.900000
0.091608 0.892500 0.900000
0.218520 0.892500 0.900000
0.351963 0.892500 0.900000
0.489842 0.892500 0.900000
0.631120 0.892500 0.900000
0.775168 0.892500 0.900000
0.921563 0.892500 0.900000
1.000000 0.892500 0.900000
0.000000 1.000000 0.900000
0.091608 1.000000 0.900000
0.218520 1.000000 0.900000
0.351963 1.000000 0.900000
0.489842 1.000000 0.900000
0.631120 1.000000 0.900000
0.775168 1.000000 0.900000
0.921563 1.000000 0.900000
1.000000 1.000000 0.900000
